www/assets/icons/cake.svg

<svg xmlns="http://www.w3.org/2000/svg" width="24" height="24" viewBox="0 0 24 24" fill='currentColor'><path d="M12 7a2 2 0 0 0 2-2c0-.38-.1-.73-.29-1.03L12 1l-1.71 2.97c-.19.3-.29.65-.29 1.03 0 1.1.9 2 2 2m4.6 9.99-1.07-1.07-1.08 1.07c-1.3 1.3-3.58 1.31-4.89 0l-1.07-1.07-1.09 1.07C6.75 17.64 5.88 18 4.96 18c-.73 0-1.4-.23-1.96-.61V22c0 .55.45 1 1 1h16c.55 0 1-.45 1-1v-4.61c-.56.38-1.23.61-1.96.61-.92 0-1.79-.36-2.44-1.01M18 10h-5V8h-2v2H6c-1.66 0-3 1.34-3 3v1.54c0 1.08.88 1.96 1.96 1.96.52 0 1.02-.2 1.38-.57l2.14-2.13 2.13 2.13c.74.74 2.03.74 2.77 0l2.14-2.13 2.13 2.13c.37.37.86.57 1.38.57 1.08 0 1.96-.88 1.96-1.96V13c.01-1.66-1.33-3-2.99-3"/></svg>

<svg width="24" height="24" viewBox="0 0 24 24" xmlns="http://www.w3.org/2000/svg" fill='currentColor'><path d="M12 7C13.11 7 14 6.1 14 5C14 4.62 13.9 4.27 13.71 3.97L12 1L10.29 3.97C10.1 4.27 10 4.62 10 5C10 6.1 10.9 7 12 7ZM16.6 16.99L15.53 15.92L14.45 16.99C13.15 18.29 10.87 18.3 9.56 16.99L8.49 15.92L7.4 16.99C6.75 17.64 5.88 18 4.96 18C4.23 18 3.56 17.77 3 17.39V22C3 22.55 3.45 23 4 23H20C20.55 23 21 22.55 21 22V17.39C20.44 17.77 19.77 18 19.04 18C18.12 18 17.25 17.64 16.6 16.99ZM18 10H13V8H11V10H6C4.34 10 3 11.34 3 13V14.54C3 15.62 3.88 16.5 4.96 16.5C5.48 16.5 5.98 16.3 6.34 15.93L8.48 13.8L10.61 15.93C11.35 16.67 12.64 16.67 13.38 15.93L15.52 13.8L17.65 15.93C18.02 16.3 18.51 16.5 19.03 16.5C20.11 16.5 20.99 15.62 20.99 14.54V13C21 11.34 19.66 10 18 10Z"/></svg>
